X:1
T:St. Barnabas (Braine), 64.64.664
T:St. Barnabas (Braine), 64.64.664
T:William Richard Braine (1829-1865)
T:Public Domain Courtesy of the Cyber Hymnal™
C:William Richard Braine (1829-1865)
Z:Public Domain
Z:Courtesy of the Cyber Hymnal™
%%score ( 1 2 ) ( 3 4 )
L:1/8
Q:1/4=107
M:3/4
K:Eb
V:1 treble 
V:2 treble 
V:3 bass 
V:4 bass 
V:1
 [EG]2 [EB]2 [EA]2 | [DG]3 [DF] [DF]2 | E2 [CE]2 [CA]2 | [EG]6 | [EG]2 [EG]2 [F=A]2 | %5
 [FB]3 [FB] [DB]2 | [Ec]2 [Fd]2 [Ec]2 | [DB]6 | [=EA]2 [EG]2 [Ec]2 | [_E_d]3 [Ec] [EF]2 | %10
 [DG]2 [DF]2 [DB]2 | [_Dc]3 [DB] [DE]2 | [Ce]2 [Dd]2 [Ec]2 | [EB]3 [EG] [Ec]2 | [CA]2 C2 [B,D]2 | %15
 [B,E]6 |] %16
V:2
 x6 | x6 | E2 x4 | x6 | x6 | x6 | x6 | x6 | x6 | x6 | x6 | x6 | x6 | x6 | x2 C2 x2 | x6 |] %16
V:3
 [E,E]2 [E,D]2 [E,C]2 | [B,,B,]3 [B,,A,] [B,,A,]2 | [C,G,]2 [B,,G,]2 [A,,A,]2 | [E,B,]6 | %4
 [E,B,]2 [E,B,]2 [E,C]2 | [D,B,]3 [D,B,] [G,B,]2 | [C,B,]2 (=A,G,) [F,A,]2 | [B,,B,]6 | %8
 [C,B,]2 [C,B,]2 [C,B,]2 | [F,=A,]3 [F,A,] [F,A,]2 | [B,,A,]2 [B,,A,]2 [B,,A,]2 | %11
 [E,G,]3 [E,G,] [E,G,]2 | [A,,A,]2 [A,,B,]2 [A,,C]2 | [E,G,]3 [E,G,] [C,G,]2 | %14
 [F,A,]2 [A,,F,]2 [B,,A,]2 | [E,G,]6 |] %16
V:4
 x6 | x6 | x6 | x6 | x6 | x6 | x2 F,2 x2 | x6 | x6 | x6 | x6 | x6 | x6 | x6 | x6 | x6 |] %16

